app/assets/images/my-wallets/symbol_ada.inline.svg

<?xml version="1.0" encoding="UTF-8"?>
<svg width="38px" height="38px" viewBox="0 0 38 38" version="1.1" xmlns="http://www.w3.org/2000/svg" xmlns:xlink="http://www.w3.org/1999/xlink">
    <!-- Generator: Sketch 60 (88103) - https://sketch.com -->
    <title>icon/ada</title>
    <desc>Created with Sketch.</desc>
    <g id="icon/ada" stroke="none" stroke-width="1" fill="none" fill-rule="evenodd">
        <rect id="path-1" fill="#F0F3F5" x="0" y="0" width="38" height="38" rx="8"></rect>
        <path d="M26.2093023,20.4341085 C26.2093023,20.0465116 25.8604651,19.7751938 25.4728682,19.7751938 L23.379845,19.7751938 C23.379845,19.7751938 23.379845,19.7751938 23.379845,19.7751938 L22.7984496,18.3410853 C22.7984496,18.3410853 22.7984496,18.3410853 22.7984496,18.3410853 L24.1162791,18.3410853 C24.503876,18.3410853 24.8527132,18.0697674 24.8527132,17.6821705 C24.8527132,17.2945736 24.5426357,16.9844961 24.1550388,16.9844961 L22.255814,16.9844961 C22.255814,16.9844961 22.255814,16.9844961 22.255814,16.9844961 L19.8527132,11.0930233 C19.7364341,10.8217054 19.503876,10.6666667 19.1937984,10.6666667 C18.9224806,10.6666667 18.6511628,10.8604651 18.5348837,11.0930233 L16.248062,16.9457364 C16.248062,16.9457364 16.248062,16.9457364 16.248062,16.9457364 L14.3875969,16.9457364 C14,16.9457364 13.6511628,17.2170543 13.6511628,17.6046512 C13.6511628,17.9922481 13.9612403,18.3023256 14.3488372,18.3023256 L15.7054264,18.3023256 C15.7054264,18.3023256 15.7054264,18.3023256 15.7054264,18.3023256 L15.124031,19.7364341 C15.124031,19.7364341 15.124031,19.7364341 15.124031,19.7364341 L13.0697674,19.7364341 C12.6821705,19.7364341 12.3333333,20.0077519 12.3333333,20.3953488 C12.3333333,20.7829457 12.6434108,21.0930233 13.0310077,21.0930233 L14.620155,21.0930233 C14.620155,21.0930233 14.620155,21.0930233 14.620155,21.0930233 L12.7596899,25.9379845 C12.6046512,26.2868217 12.7984496,26.6744186 13.1472868,26.8294574 C13.2248062,26.8682171 13.3023256,26.8682171 13.379845,26.8682171 C13.6511628,26.8682171 13.9224806,26.7131783 14.0387597,26.4418605 L16.0930233,21.1705426 C16.0930233,21.1705426 16.0930233,21.1705426 16.0930233,21.1705426 L22.372093,21.1705426 C22.372093,21.1705426 22.372093,21.1705426 22.372093,21.1705426 L24.503876,26.4806202 C24.620155,26.751938 24.8527132,26.9069767 25.1627907,26.9069767 C25.2403101,26.9069767 25.3178295,26.9069767 25.4341085,26.8682171 C25.7829457,26.7131783 25.9767442,26.3255814 25.8217054,25.9767442 L23.8837209,21.1705426 C23.8837209,21.1705426 23.8837209,21.1705426 23.8837209,21.1705426 L25.4728682,21.1705426 C25.8992248,21.1317829 26.248062,20.8217054 26.2093023,20.4341085 Z M19.2325581,13.2248062 L20.744186,16.9457364 C20.744186,16.9457364 20.744186,16.9457364 20.744186,16.9457364 L17.7596899,16.9457364 C17.7596899,16.9457364 17.7596899,16.9457364 17.7596899,16.9457364 L19.2325581,13.2248062 C19.2325581,13.2248062 19.2325581,13.2248062 19.2325581,13.2248062 Z M16.6744186,19.7751938 L17.2558139,18.3410853 C17.2558139,18.3410853 17.2558139,18.3410853 17.2558139,18.3410853 L21.2868217,18.3410853 C21.2868217,18.3410853 21.2868217,18.3410853 21.2868217,18.3410853 L21.8682171,19.7751938 C21.8682171,19.7751938 21.8682171,19.7751938 21.8682171,19.7751938 L16.6744186,19.7751938 C16.6744186,19.7751938 16.6744186,19.7751938 16.6744186,19.7751938 Z" id="Shape" fill="#464749" fill-rule="nonzero"></path>
    </g>
</svg>

<svg width="38" height="38" xmlns="http://www.w3.org/2000/svg"><g fill="none" fill-rule="evenodd"><rect fill="#F0F3F5" width="38" height="38" rx="8"/><path d="M26.21 20.434c0-.387-.35-.659-.737-.659H23.38l-.582-1.434h1.318c.388 0 .737-.271.737-.659a.695.695 0 00-.698-.698h-1.9l-2.402-5.891a.679.679 0 00-.66-.426c-.27 0-.542.193-.658.426l-2.287 5.853h-1.86c-.388 0-.737.271-.737.659 0 .387.31.697.698.697h1.356l-.581 1.434H13.07c-.388 0-.737.272-.737.66 0 .387.31.697.698.697h1.59l-1.861 4.845c-.155.349.038.736.387.891a.492.492 0 00.233.04.716.716 0 00.659-.427l2.054-5.271h6.28l2.13 5.31a.679.679 0 00.66.426c.077 0 .155 0 .271-.039.349-.155.543-.542.388-.891l-1.938-4.806h1.589c.426-.04.775-.35.736-.737zm-6.977-7.21l1.511 3.722H17.76l1.473-3.721zm-2.559 6.551l.582-1.434h4.03l.582 1.434h-5.194z" fill="#464749" fill-rule="nonzero"/></g></svg>
